Suru++/mimetypes/scalable/application-x-mono-develop.svg

<svg xmlns="http://www.w3.org/2000/svg" xmlns:xlink="http://www.w3.org/1999/xlink" style="isolation:isolate" width="256" height="256"><switch><g><path d="M78.924 15.5c-35.296 0-39.094 3.625-38.921 38.994v146.012c-.173 35.369 3.625 38.994 38.921 38.994h98.157c35.297 0 38.922-3.625 38.922-38.994V54.494c0-35.369-3.625-38.994-38.922-38.994H78.924z" fill="none" vector-effect="non-scaling-stroke" stroke-width="4" stroke="#000" opacity=".2"/><defs><filter id="a" x="-200%" y="-200%" width="400%" height="400%" filterUnits="objectBoundingBox" color-interpolation-filters="sRGB"><feGaussianBlur xmlns="http://www.w3.org/2000/svg" stdDeviation="2.12"/></filter></defs><path d="M78.924 16.5c-35.296 0-39.094 3.625-38.921 38.994v146.012c-.173 35.369 3.625 38.994 38.921 38.994h98.157c35.297 0 38.003-3.637 38.922-38.994V55.494c0-35.369-3.625-38.994-38.922-38.994H78.924z" opacity=".1" filter="url(#a)"/><defs><filter id="b" x="-200%" y="-200%" width="400%" height="400%" filterUnits="objectBoundingBox" color-interpolation-filters="sRGB"><feGaussianBlur xmlns="http://www.w3.org/2000/svg" stdDeviation="8.48"/></filter></defs><g opacity=".3" filter="url(#b)"><linearGradient id="c" x1="-.068" y1=".031" x2=".954" y2="1.053" gradientTransform="matrix(176.0054 0 0 224 39.997 16.5)" gradientUnits="userSpaceOnUse"><stop offset="0%" stop-opacity=".588"/><stop offset="88%" stop-opacity="0"/><stop offset="100%"/></linearGradient><path d="M78.924 16.5c-35.296 0-39.094 3.625-38.921 38.994v146.012c-.173 35.369 3.625 38.994 38.921 38.994h98.157c35.297 0 38.922-3.625 38.922-38.994V55.494c0-35.369-3.625-38.994-38.922-38.994H78.924z" fill="url(#c)"/></g><path d="M78.924 15.5c-35.296 0-39.094 3.625-38.921 38.994v146.012c-.173 35.369 3.625 38.994 38.921 38.994h98.157c35.297 0 38.922-3.625 38.922-38.994V54.494c0-35.369-3.625-38.994-38.922-38.994H78.924z" fill="#2B898F"/><path d="M78.925 15.5c-35.297 0-39.095 3.626-38.922 38.994v2C39.83 21.126 43.628 17.5 78.925 17.5h98.156c35.297 0 38.922 3.626 38.922 38.994v-2c0-35.368-3.625-38.994-38.922-38.994H78.925z" fill="#FFF" opacity=".6"/><path d="M128.003 15.5v224h49.078c35.297 0 38.003-3.636 38.922-38.993V54.493c0-35.368-3.625-38.993-38.922-38.993h-49.078z" fill="#FFF" opacity=".1"/><path d="M156.003 239.5l60-60v22.484c-.053 33.996-3.803 37.516-38.174 37.516h-21.826z" fill="#FFF" opacity=".2"/><g><defs><filter id="d" x="-200%" y="-200%" width="400%" height="400%" filterUnits="objectBoundingBox" color-interpolation-filters="sRGB"><feGaussianBlur xmlns="http://www.w3.org/2000/svg" stdDeviation=".859"/></filter></defs><path d="M107.535 88.178c-14.876.001-33.668 14.212-33.505 36.154.159 21.238 7.216 32.71 12.588 45.714l15.9-6.625c-3.65-7.48-8.344-14.943-10.032-18.645-4.725-10.366-6.452-15.004-6.057-22.904.381-7.639 2.927-12.344 7.572-16.847 4.644-4.503 11.068-6.74 18.74-5.68 16.247 2.252 21.475 14.548 21.863 20.539.319 4.927-3.23 17.061-15.712 16.468-8.653-.411-13.517-5.208-14.102-13.345-.43-5.996 5.372-12.05 14.765-8.991 1.512.492 1.614-2.22-.095-3.597-4.399-3.545-21.827-2.19-21.768 11.736.054 12.906 10.378 21.522 20.349 21.58 20.882.123 24.983-16.362 24.23-27.731-.836-12.599-16.725-27.828-34.736-27.826z" fill-rule="evenodd" fill="#3A797D" opacity=".8" filter="url(#d)"/><path d="M86.653 167.01c-5.372-13.004-12.494-24.464-12.652-45.702-.163-21.942 18.659-36.148 33.535-36.15 18.011-.002 33.858 15.208 34.693 27.806.755 11.37-3.291 27.905-24.174 27.782-9.97-.058-20.332-8.732-20.386-21.638-.06-13.926 17.386-15.284 21.786-11.739 1.708 1.377 1.656 4.102.144 3.61-9.393-3.058-15.196 2.97-14.765 8.966.585 8.137 5.412 12.978 14.066 13.39 12.482.593 15.976-11.547 15.657-16.474-.387-5.99-5.61-18.311-21.858-20.562-7.671-1.062-14.03 1.236-18.673 5.738-4.644 4.504-7.255 9.16-7.637 16.798-.394 7.9 1.33 12.536 6.056 22.902 1.688 3.702 6.402 11.17 10.053 18.65l-15.845 6.623z" fill-rule="evenodd" fill="#EEEEEC"/><defs><filter id="e" x="-200%" y="-200%" width="400%" height="400%" filterUnits="objectBoundingBox" color-interpolation-filters="sRGB"><feGaussianBlur xmlns="http://www.w3.org/2000/svg" stdDeviation=".859"/></filter></defs><path d="M169.347 89.036c5.372 13.005 12.494 24.465 12.652 45.703.164 21.942-18.659 36.148-33.535 36.15-18.011.002-33.858-15.208-34.693-27.805-.755-11.37 3.291-27.906 24.174-27.783 9.97.058 20.332 8.732 20.386 21.637.06 13.926-17.386 15.285-21.786 11.74-1.708-1.377-1.656-4.102-.144-3.61 9.393 3.058 15.196-2.97 14.765-8.967-.585-8.136-5.412-12.976-14.066-13.388-12.482-.593-15.976 11.547-15.657 16.473.387 5.99 5.61 18.312 21.858 20.562 7.671 1.062 14.03-1.236 18.673-5.739 4.644-4.503 7.256-9.16 7.637-16.797.394-7.9-1.33-12.536-6.056-22.901-1.688-3.704-6.402-11.17-10.053-18.65l15.845-6.625z" fill-rule="evenodd" fill="#2F6D70" opacity=".8" filter="url(#e)"/><path d="M168.876 85.158c5.372 13.005 12.494 24.465 12.653 45.703.163 21.943-18.66 36.149-33.536 36.15-18.01.002-33.857-15.208-34.693-27.805-.754-11.37 3.292-27.906 24.175-27.782 9.97.058 20.331 8.732 20.386 21.637.059 13.925-17.387 15.285-21.786 11.739-1.709-1.377-1.657-4.102-.145-3.61 9.394 3.058 15.196-2.97 14.765-8.966-.585-8.137-5.412-12.977-14.065-13.389-12.482-.593-15.977 11.547-15.658 16.474.388 5.99 5.611 18.312 21.858 20.56 7.672 1.063 14.03-1.235 18.674-5.737 4.644-4.504 7.255-9.16 7.637-16.797.394-7.901-1.33-12.537-6.056-22.902-1.688-3.703-6.403-11.17-10.054-18.65l15.845-6.625z" fill-rule="evenodd" fill="#96D1D5"/><path d="M107.51 85.112c-14.876.001-33.668 14.212-33.504 36.155.158 21.237 7.31 32.71 12.682 45.713l15.806-6.625c-1.41-2.89-2.955-5.658-4.448-8.329h-3.502v-6.34c-.86-1.55-1.608-2.937-2.082-3.976-4.725-10.365-6.452-15.004-6.057-22.904.381-7.639 3.022-12.25 7.666-16.753 4.644-4.502 10.974-6.835 18.645-5.773 7.683 1.065 12.872 4.4 16.28 8.234h3.217v4.733c1.465 2.828 2.236 5.553 2.366 7.571.142 2.19-.548 5.799-2.366 9.086v11.263c8.632-5.465 10.569-16.15 10.033-24.23-.836-12.598-16.724-27.827-34.735-27.825z" fill-rule="evenodd" fill="#EEEEEC"/></g></g><foreignObject requiredExtensions="http://ns.gravit.io/"> </foreignObject></switch> </svg>

<svg width="256" height="256" viewBox="0 0 256 256" fill="none" xmlns="http://www.w3.org/2000/svg">
<g opacity="0.4" filter="url(#filter0_f)">
<path d="M55.0839 15.5636H155.608L216.009 75.7129L216.011 224.609C216.011 233.52 208.749 240.737 199.838 240.737H55.0838C46.1734 240.737 39 233.564 39 224.654V31.6474C39 22.737 46.1734 15.5636 55.0838 15.5636H55.0839Z" fill="black"/>
</g>
<path d="M55.0839 15H155.608L216.009 75.1493L216.011 224.045C216.011 232.956 208.749 240.174 199.838 240.174H55.0838C46.1734 240.174 39 233 39 224.09V31.0838C39 22.1734 46.1734 15 55.0838 15H55.0839Z" fill="#ECECEC"/>
<path fill-rule="evenodd" clip-rule="evenodd" d="M155.609 22.9787H55.0839C50.58 22.9787 46.9787 26.5799 46.9787 31.0838V224.09C46.9787 228.594 50.5799 232.195 55.0838 232.195H199.838C204.371 232.195 208.032 228.521 208.032 224.046V75.1493L155.609 22.9787ZM155.608 15H55.0839C46.1735 15 39 22.1734 39 31.0838V224.09C39 233 46.1734 240.174 55.0838 240.174H199.838C208.749 240.174 216.011 232.956 216.011 224.045L216.009 75.1493L155.608 15Z" fill="url(#paint0_linear)"/>
<path fill-rule="evenodd" clip-rule="evenodd" d="M86.653 167.01C81.281 154.006 74.159 142.546 74.001 121.308C73.838 99.366 92.66 85.16 107.536 85.158C125.547 85.156 141.394 100.366 142.229 112.964C142.984 124.334 138.938 140.869 118.055 140.746C108.085 140.688 97.723 132.014 97.669 119.108C97.609 105.182 115.055 103.824 119.455 107.369C121.163 108.746 121.111 111.471 119.599 110.979C110.206 107.921 104.403 113.949 104.834 119.945C105.419 128.082 110.246 132.923 118.9 133.335C131.382 133.928 134.876 121.788 134.557 116.861C134.17 110.871 128.947 98.55 112.699 96.299C105.028 95.237 98.669 97.535 94.026 102.037C89.382 106.541 86.771 111.197 86.389 118.835C85.995 126.735 87.719 131.371 92.445 141.737C94.133 145.439 98.847 152.907 102.498 160.387L86.653 167.01V167.01Z" fill="url(#paint1_linear)"/>
<path fill-rule="evenodd" clip-rule="evenodd" d="M86.653 167.01C81.281 154.006 74.159 142.546 74.001 121.308C73.838 99.366 92.66 85.16 107.536 85.158C125.547 85.156 141.394 100.366 142.229 112.964C142.984 124.334 138.938 140.869 118.055 140.746C108.085 140.688 97.723 132.014 97.669 119.108C97.609 105.182 115.055 103.824 119.455 107.369C121.163 108.746 121.111 111.471 119.599 110.979C110.206 107.921 104.403 113.949 104.834 119.945C105.419 128.082 110.246 132.923 118.9 133.335C131.382 133.928 134.876 121.788 134.557 116.861C134.17 110.871 128.947 98.55 112.699 96.299C105.028 95.237 98.669 97.535 94.026 102.037C89.382 106.541 86.771 111.197 86.389 118.835C85.995 126.735 87.719 131.371 92.445 141.737C94.133 145.439 98.847 152.907 102.498 160.387L86.653 167.01V167.01Z" fill="white" fill-opacity="0.4"/>
<path fill-rule="evenodd" clip-rule="evenodd" d="M168.876 85.158C174.248 98.163 181.37 109.623 181.529 130.861C181.692 152.804 162.869 167.01 147.993 167.011C129.983 167.013 114.136 151.803 113.3 139.206C112.546 127.836 116.592 111.3 137.475 111.424C147.445 111.482 157.806 120.156 157.861 133.061C157.92 146.986 140.474 148.346 136.075 144.8C134.366 143.423 134.418 140.698 135.93 141.19C145.324 144.248 151.126 138.22 150.695 132.224C150.11 124.087 145.283 119.247 136.63 118.835C124.148 118.242 120.653 130.382 120.972 135.309C121.36 141.299 126.583 153.621 142.83 155.869C150.502 156.932 156.86 154.634 161.504 150.132C166.148 145.628 168.759 140.972 169.141 133.335C169.535 125.434 167.811 120.798 163.085 110.433C161.397 106.73 156.682 99.263 153.031 91.783L168.876 85.158V85.158Z" fill="url(#paint2_linear)"/>
<path fill-rule="evenodd" clip-rule="evenodd" d="M107.51 85.112C92.634 85.113 73.842 99.324 74.006 121.267C74.164 142.504 81.316 153.977 86.688 166.98L102.494 160.355C101.084 157.465 99.539 154.697 98.046 152.026H94.544V145.686C93.684 144.136 92.936 142.749 92.462 141.71C87.737 131.345 86.01 126.706 86.405 118.806C86.786 111.167 89.427 106.556 94.071 102.053C98.715 97.551 105.045 95.218 112.716 96.28C120.399 97.345 125.588 100.68 128.996 104.514H132.213V109.247C133.678 112.075 134.449 114.8 134.579 116.818C134.721 119.008 134.031 122.617 132.213 125.904V137.167C140.845 131.702 142.782 121.017 142.246 112.937C141.41 100.339 125.521 85.11 107.51 85.112Z" fill="url(#paint3_linear)"/>
<path fill-rule="evenodd" clip-rule="evenodd" d="M107.51 85.112C92.634 85.113 73.842 99.324 74.006 121.267C74.164 142.504 81.316 153.977 86.688 166.98L102.494 160.355C101.084 157.465 99.539 154.697 98.046 152.026H94.544V145.686C93.684 144.136 92.936 142.749 92.462 141.71C87.737 131.345 86.01 126.706 86.405 118.806C86.786 111.167 89.427 106.556 94.071 102.053C98.715 97.551 105.045 95.218 112.716 96.28C120.399 97.345 125.588 100.68 128.996 104.514H132.213V109.247C133.678 112.075 134.449 114.8 134.579 116.818C134.721 119.008 134.031 122.617 132.213 125.904V137.167C140.845 131.702 142.782 121.017 142.246 112.937C141.41 100.339 125.521 85.11 107.51 85.112Z" fill="white" fill-opacity="0.4"/>
<path opacity="0.25" d="M155.608 17V61.2306C155.608 70.141 162.867 77.1605 171.777 77.1605L216.009 77.1493V75.1493L155.608 17Z" fill="black"/>
<path d="M155.608 15V59.2306C155.608 68.141 162.867 75.1605 171.777 75.1605L216.009 75.1493L155.608 15Z" fill="url(#paint4_linear)"/>
<defs>
<filter id="filter0_f" x="23.8778" y="0.441412" width="207.255" height="255.418" filterUnits="userSpaceOnUse" color-interpolation-filters="sRGB">
<feFlood flood-opacity="0" result="BackgroundImageFix"/>
<feBlend mode="normal" in="SourceGraphic" in2="BackgroundImageFix" result="shape"/>
<feGaussianBlur stdDeviation="7.5611" result="effect1_foregroundBlur"/>
</filter>
<linearGradient id="paint0_linear" x1="126.411" y1="14.914" x2="127.127" y2="240.916" gradientUnits="userSpaceOnUse">
<stop stop-color="#1AD6AB"/>
<stop offset="1" stop-color="#329DB6"/>
</linearGradient>
<linearGradient id="paint1_linear" x1="107.734" y1="85.1267" x2="107.979" y2="167.28" gradientUnits="userSpaceOnUse">
<stop stop-color="#1AD6AB"/>
<stop offset="1" stop-color="#329DB6"/>
</linearGradient>
<linearGradient id="paint2_linear" x1="146.951" y1="85.1267" x2="147.196" y2="167.281" gradientUnits="userSpaceOnUse">
<stop stop-color="#1AD6AB"/>
<stop offset="1" stop-color="#329DB6"/>
</linearGradient>
<linearGradient id="paint3_linear" x1="107.744" y1="85.0807" x2="107.99" y2="167.25" gradientUnits="userSpaceOnUse">
<stop stop-color="#1AD6AB"/>
<stop offset="1" stop-color="#329DB6"/>
</linearGradient>
<linearGradient id="paint4_linear" x1="185.435" y1="14.977" x2="185.585" y2="75.3591" gradientUnits="userSpaceOnUse">
<stop stop-color="#1AD6AB"/>
<stop offset="1" stop-color="#329DB6"/>
</linearGradient>
</defs>
</svg>
